icons/1_Primary/Bitbucket.svg

<svg xmlns="http://www.w3.org/2000/svg" width="1024" height="1024" fill="none">
   <g clip-path="url(#a)">
      <path fill="#728DBE" d="M512 1024c282.77 0 512-229.23 512-512S794.77 0 512 0 0 229.23 0 512s229.23 512 512 512Z"/>
      <path fill="#fff" d="M272.6 281.9c-9-.1-16.5 7.1-16.6 16.2 0 1 0 1.9.2 2.9l69.6 422.6c1.8 10.6 11 18.5 21.8 18.6h334c8.1.1 15.1-5.8 16.4-13.8L767.8 301c1.5-8.9-4.6-17.3-13.5-18.8-1-.2-1.9-.2-2.8-.2l-478.9-.1Zm293.2 305.4H459.1l-28.8-150.7h161.3l-25.8 150.7Z"/>
   </g>
   <defs>
      <clipPath id="a">
         <path fill="#fff" d="M0 0h1024v1024H0z"/>
      </clipPath>
   </defs>
</svg>

<svg width="1024" height="1024" viewBox="0 0 1024 1024" fill="none" xmlns="http://www.w3.org/2000/svg">
<g clip-path="url(#clip0_2_1608)">
<path d="M512 1024C794.77 1024 1024 794.77 1024 512C1024 229.23 794.77 0 512 0C229.23 0 0 229.23 0 512C0 794.77 229.23 1024 512 1024Z" fill="#728DBE"/>
<path d="M272.6 281.9C263.6 281.8 256.1 289 256 298.1C256 299.1 256 300 256.2 301L325.8 723.6C327.6 734.2 336.8 742.1 347.6 742.2H681.6C689.7 742.3 696.7 736.4 698 728.4L767.8 301C769.3 292.1 763.2 283.7 754.3 282.2C753.3 282 752.4 282 751.5 282L272.6 281.9ZM565.8 587.3H459.1L430.3 436.6H591.6L565.8 587.3Z" fill="white"/>
</g>
<defs>
<clipPath id="clip0_2_1608">
<rect width="1024" height="1024" fill="white"/>
</clipPath>
</defs>
</svg>
